src/assets/why_chose_us_1.svg

<svg width="60" height="60" viewBox="0 0 60 60" fill="none" xmlns="http://www.w3.org/2000/svg">
<path d="M22.5 54.375H15C14.7514 54.375 14.5129 54.4738 14.3371 54.6496C14.1613 54.8254 14.0625 55.0639 14.0625 55.3125C14.0625 55.5611 14.1613 55.7996 14.3371 55.9754C14.5129 56.1512 14.7514 56.25 15 56.25H22.5C22.7486 56.25 22.9871 56.1512 23.1629 55.9754C23.3387 55.7996 23.4375 55.5611 23.4375 55.3125C23.4375 55.0639 23.3387 54.8254 23.1629 54.6496C22.9871 54.4738 22.7486 54.375 22.5 54.375Z" fill="#FF5500"/>
<path d="M54.8438 18.75H35.625V4.21875C35.624 3.3488 35.278 2.51476 34.6629 1.89962C34.0477 1.28447 33.2137 0.938462 32.3438 0.9375H5.15625C4.2863 0.938462 3.45226 1.28447 2.83712 1.89962C2.22197 2.51476 1.87596 3.3488 1.875 4.21875V55.7812C1.87596 56.6512 2.22197 57.4852 2.83712 58.1004C3.45226 58.7155 4.2863 59.0615 5.15625 59.0625H32.3438C33.2137 59.0615 34.0477 58.7155 34.6629 58.1004C35.278 57.4852 35.624 56.6512 35.625 55.7812V42.1875H54.8438C55.7137 42.1865 56.5477 41.8405 57.1629 41.2254C57.778 40.6102 58.124 39.7762 58.125 38.9062V22.0312C58.124 21.1613 57.778 20.3273 57.1629 19.7121C56.5477 19.097 55.7137 18.751 54.8438 18.75ZM23.1738 2.8125L22.7051 4.6875H14.7949L14.3262 2.8125H23.1738ZM33.75 55.7812C33.7497 56.1541 33.6014 56.5116 33.3378 56.7753C33.0741 57.0389 32.7166 57.1872 32.3438 57.1875H5.15625C4.78338 57.1872 4.42588 57.0389 4.16222 56.7753C3.89857 56.5116 3.75031 56.1541 3.75 55.7812V4.21875C3.75031 3.84588 3.89857 3.48838 4.16222 3.22472C4.42588 2.96107 4.78338 2.81281 5.15625 2.8125H12.3926L13.1531 5.85234C13.2038 6.05516 13.3209 6.23522 13.4856 6.36389C13.6504 6.49256 13.8534 6.56247 14.0625 6.5625H23.4375C23.6466 6.56247 23.8496 6.49256 24.0144 6.36389C24.1791 6.23522 24.2962 6.05516 24.3469 5.85234L25.1074 2.8125H32.3438C32.7166 2.81281 33.0741 2.96107 33.3378 3.22472C33.6014 3.48838 33.7497 3.84588 33.75 4.21875V55.7812ZM35.625 32.8125H38.4375V36.5625H35.625V32.8125ZM56.25 38.9062C56.2497 39.2791 56.1014 39.6366 55.8378 39.9003C55.5741 40.1639 55.2166 40.3122 54.8438 40.3125H35.625V38.4375H39.375C39.6236 38.4375 39.8621 38.3387 40.0379 38.1629C40.2137 37.9871 40.3125 37.7486 40.3125 37.5V31.875C40.3125 31.6264 40.2137 31.3879 40.0379 31.2121C39.8621 31.0363 39.6236 30.9375 39.375 30.9375H35.625V28.125H56.25V38.9062ZM56.25 26.25H35.625V24.375H56.25V26.25ZM56.25 22.5H35.625V20.625H54.8438C55.2166 20.6253 55.5741 20.7736 55.8378 21.0372C56.1014 21.3009 56.2497 21.6584 56.25 22.0312V22.5Z" fill="#FF5500"/>
<path d="M53.4375 30.9375H45C44.7514 30.9375 44.5129 31.0363 44.3371 31.2121C44.1613 31.3879 44.0625 31.6264 44.0625 31.875C44.0625 32.1236 44.1613 32.3621 44.3371 32.5379C44.5129 32.7137 44.7514 32.8125 45 32.8125H53.4375C53.6861 32.8125 53.9246 32.7137 54.1004 32.5379C54.2762 32.3621 54.375 32.1236 54.375 31.875C54.375 31.6264 54.2762 31.3879 54.1004 31.2121C53.9246 31.0363 53.6861 30.9375 53.4375 30.9375Z" fill="#FF5500"/>
<path d="M53.4375 33.75H45C44.7514 33.75 44.5129 33.8488 44.3371 34.0246C44.1613 34.2004 44.0625 34.4389 44.0625 34.6875C44.0625 34.9361 44.1613 35.1746 44.3371 35.3504C44.5129 35.5262 44.7514 35.625 45 35.625H53.4375C53.6861 35.625 53.9246 35.5262 54.1004 35.3504C54.2762 35.1746 54.375 34.9361 54.375 34.6875C54.375 34.4389 54.2762 34.2004 54.1004 34.0246C53.9246 33.8488 53.6861 33.75 53.4375 33.75Z" fill="#FF5500"/>
<path d="M53.4375 36.5625H49.6875C49.4389 36.5625 49.2004 36.6613 49.0246 36.8371C48.8488 37.0129 48.75 37.2514 48.75 37.5C48.75 37.7486 48.8488 37.9871 49.0246 38.1629C49.2004 38.3387 49.4389 38.4375 49.6875 38.4375H53.4375C53.6861 38.4375 53.9246 38.3387 54.1004 38.1629C54.2762 37.9871 54.375 37.7486 54.375 37.5C54.375 37.2514 54.2762 37.0129 54.1004 36.8371C53.9246 36.6613 53.6861 36.5625 53.4375 36.5625Z" fill="#FF5500"/>
<path d="M18.75 18.75C16.525 18.75 14.3499 19.4098 12.4998 20.646C10.6498 21.8821 9.20785 23.6391 8.35636 25.6948C7.50487 27.7505 7.28209 30.0125 7.71617 32.1948C8.15025 34.3771 9.22171 36.3816 10.7951 37.955C12.3684 39.5283 14.373 40.5998 16.5552 41.0338C18.7375 41.4679 20.9995 41.2451 23.0552 40.3936C25.1109 39.5422 26.8679 38.1002 28.104 36.2502C29.3402 34.4001 30 32.225 30 30C29.9967 27.0173 28.8103 24.1578 26.7013 22.0487C24.5922 19.9397 21.7327 18.7533 18.75 18.75ZM18.75 39.375C16.8958 39.375 15.0832 38.8252 13.5415 37.795C11.9998 36.7649 10.7982 35.3007 10.0886 33.5877C9.37906 31.8746 9.19341 29.9896 9.55514 28.171C9.91688 26.3525 10.8098 24.682 12.1209 23.3709C13.432 22.0598 15.1025 21.1669 16.921 20.8051C18.7396 20.4434 20.6246 20.6291 22.3377 21.3386C24.0507 22.0482 25.5149 23.2498 26.545 24.7915C27.5752 26.3332 28.125 28.1458 28.125 30C28.1222 32.4855 27.1336 34.8685 25.376 36.626C23.6185 38.3835 21.2355 39.3722 18.75 39.375Z" fill="#FF5500"/>
<path d="M23.7121 26.5246L17.7245 32.5122L14.625 30.1875C14.4261 30.0383 14.1761 29.9743 13.9299 30.0094C13.6838 30.0446 13.4617 30.1761 13.3125 30.375C13.1633 30.5739 13.0993 30.824 13.1344 31.0701C13.1696 31.3162 13.3011 31.5383 13.5 31.6875L17.25 34.5C17.4305 34.6354 17.6539 34.7012 17.879 34.6852C18.1041 34.6692 18.3159 34.5725 18.4754 34.413L25.0379 27.8505C25.2138 27.6746 25.3125 27.4362 25.3125 27.1875C25.3125 26.9389 25.2138 26.7004 25.0379 26.5246C24.8621 26.3488 24.6237 26.25 24.375 26.25C24.1264 26.25 23.8879 26.3488 23.7121 26.5246Z" fill="#FF5500"/>
</svg>

<svg xmlns="http://www.w3.org/2000/svg" width="60" height="60" fill="none" xmlns:v="https://vecta.io/nano"><g fill="#f50"><path d="M22.5 54.375H15a.94.94 0 0 0-.937.938.94.94 0 0 0 .938.938h7.5a.94.94 0 0 0 .938-.937.94.94 0 0 0-.937-.937zM54.844 18.75H35.625V4.219c-.001-.87-.347-1.704-.962-2.319a3.28 3.28 0 0 0-2.319-.962H5.156c-.87.001-1.704.347-2.319.962s-.961 1.449-.962 2.319v51.562c.001.87.347 1.704.962 2.319s1.449.961 2.319.962h27.188c.87-.001 1.704-.347 2.319-.962s.961-1.449.962-2.319V42.188h19.219c.87-.001 1.704-.347 2.319-.962s.961-1.449.962-2.319V22.031c-.001-.87-.347-1.704-.962-2.319s-1.449-.961-2.319-.962zM23.174 2.813l-.469 1.875h-7.91l-.469-1.875h8.848zM33.75 55.781a1.41 1.41 0 0 1-1.406 1.406H5.156a1.41 1.41 0 0 1-1.406-1.406V4.219a1.41 1.41 0 0 1 .412-.994c.263-.264.621-.412.994-.412h7.236l.761 3.04a.94.94 0 0 0 .909.71h9.375a.94.94 0 0 0 .909-.71l.76-3.04h7.236a1.41 1.41 0 0 1 1.406 1.406v51.562zm1.875-22.969h2.813v3.75h-2.812v-3.75zm20.625 6.094a1.41 1.41 0 0 1-1.406 1.406H35.625v-1.875h3.75a.94.94 0 0 0 .938-.937v-5.625a.94.94 0 0 0-.937-.937h-3.75v-2.812H56.25v10.781zm0-12.656H35.625v-1.875H56.25v1.875zm0-3.75H35.625v-1.875h19.219a1.41 1.41 0 0 1 1.406 1.406v.469z"/><use href="#B"/><use href="#B" y="2.812"/><path d="M53.438 36.563h-3.75a.94.94 0 0 0-.937.938.94.94 0 0 0 .938.938h3.75a.94.94 0 0 0 .938-.937.94.94 0 0 0-.937-.937zM18.75 18.75a11.25 11.25 0 0 0-7.955 19.205A11.25 11.25 0 0 0 30 30a11.26 11.26 0 0 0-3.299-7.951c-2.109-2.109-4.969-3.295-7.951-3.299zm0 20.625a9.38 9.38 0 0 1-5.209-1.58c-1.542-1.03-2.743-2.494-3.453-4.207a9.37 9.37 0 0 1-.533-5.417c.362-1.819 1.255-3.489 2.566-4.8a9.38 9.38 0 0 1 4.8-2.566 9.37 9.37 0 0 1 5.417.534c1.713.71 3.177 1.911 4.207 3.453s1.58 3.354 1.58 5.209c-.003 2.486-.991 4.868-2.749 6.626s-4.141 2.746-6.626 2.749zm4.962-12.85l-5.988 5.988-3.099-2.325a.94.94 0 0 0-1.312.188.94.94 0 0 0 .188 1.313l3.75 2.813a.94.94 0 0 0 1.225-.087l6.563-6.562c.176-.176.275-.414.275-.663s-.099-.487-.275-.663-.414-.275-.663-.275a.94.94 0 0 0-.663.275z"/></g><defs ><path id="B" d="M53.438 30.938H45a.94.94 0 0 0-.937.938.94.94 0 0 0 .938.938h8.438a.94.94 0 0 0 .938-.937.94.94 0 0 0-.937-.937z"/></defs></svg>
